; generated by PrusaSlicer 2.9.4 on 2026-02-12 at 14:25:45 UTC


;
;
; 

; external perimeters extrusion width = 0.45mm
; perimeters extrusion width = 0.45mm
; infill extrusion width = 0.45mm
; solid infill extrusion width = 0.45mm
; top infill extrusion width = 0.40mm
; support material extrusion width = 0.35mm
; first layer extrusion width = 0.42mm

; external perimeters extrusion width = 0.45mm
; perimeters extrusion width = 0.45mm
; infill extrusion width = 0.45mm
; solid infill extrusion width = 0.45mm
; top infill extrusion width = 0.40mm
; support material extrusion width = 0.35mm
; first layer extrusion width = 0.42mm

; external perimeters extrusion width = 0.45mm
; perimeters extrusion width = 0.45mm
; infill extrusion width = 0.45mm
; solid infill extrusion width = 0.45mm
; top infill extrusion width = 0.40mm
; support material extrusion width = 0.35mm
; first layer extrusion width = 0.42mm

; external perimeters extrusion width = 0.45mm
; perimeters extrusion width = 0.45mm
; infill extrusion width = 0.45mm
; solid infill extrusion width = 0.45mm
; top infill extrusion width = 0.40mm
; support material extrusion width = 0.35mm
; first layer extrusion width = 0.42mm

M73 P0 R70
M73 Q0 S71
M201 X1000 Y1000 Z200 E5000 ; sets maximum accelerations, mm/sec^2
M203 X200 Y200 Z12 E120 ; sets maximum feedrates, mm / sec
M204 S1250 T1250 ; sets acceleration (S) and retract acceleration (R), mm/sec^2
M205 X8.00 Y8.00 Z0.40 E4.50 ; sets the jerk limits, mm/sec
M205 S0 T0 ; sets the minimum extruding and travel feed rate, mm/sec

; printing object Cam_Front_Cover.stl id:1 copy 0
; stop printing object Cam_Front_Cover.stl id:1 copy 0
; printing object Cam_Stand.stl id:2 copy 0
; stop printing object Cam_Stand.stl id:2 copy 0
; printing object Camera_Stand_Base_clean.stl id:0 copy 0
; stop printing object Camera_Stand_Base_clean.stl id:0 copy 0
; printing object Camera_Back_Cover.stl id:3 copy 0
; stop printing object Camera_Back_Cover.stl id:3 copy 0

;TYPE:Custom
M862.3 P "MK3S" ; printer model check
M862.1 P0.4 ; nozzle diameter check
M115 U3.14.1 ; tell printer latest fw version
G90 ; use absolute coordinates
M83 ; extruder relative mode
M104 S215 ; set extruder temp
M140 S60 ; set bed temp
M190 S60 ; wait for bed temp
M109 S215 ; wait for extruder temp
G28 W ; home all without mesh bed level
G80 X83.137 Y54.3492 W93.5483 H67.6096 ; mesh bed levelling

G1 Z0.2 F720
G1 Y-3 F1000 ; go outside print area
G92 E0
G1 X60 E9 F1000 ; intro line
G1 X100 E12.5 F1000 ; intro line

G92 E0
M221 S95

; Don't change E values below. Excessive value can damage the printer.
M907 E430 ; set extruder motor current
G21 ; set units to millimeters
G90 ; use absolute coordinates
M83 ; use relative distances for extrusion

M900 K0.05 ; Filament gcode LA 1.5
M900 K30 ; Filament gcode LA 1.0




M107
;LAYER_CHANGE
;Z:0.2
;HEIGHT:0.2
G1 E-.8 F2100
G1 Z.6 F720
G1 X88.899 Y74.495 F10800
G1 Z.2 F720
G1 E.8 F2100
M204 S800
;TYPE:Skirt/Brim
;WIDTH:0.42
G1 F1200
G1 X89.751 Y73.512 E.04079
G1 X117.059 Y56.624 E1.00673
G1 X119.107 Y55.659 E.07098
G1 X121.195 Y55.002 E.06863
G1 X122.938 Y54.677 E.05559
G1 X125.198 Y54.538 E.07099
G1 X127.38 Y54.7 E.0686
G1 X129.12 Y55.043 E.05561
G1 X131.271 Y55.75 E.07099
G1 X133.238 Y56.708 E.0686
G1 X169.359 Y79.376 E1.33709
G1 X170.196 Y80.343 E.0401
M73 Q0 S70
G1 X176.014 Y93.486 E.45066
G1 X176.286 Y94.298 E.02685
G1 X176.472 Y95.363 E.0339
G1 X176.497 Y115.028 E.61658
G1 X176.443 Y115.865 E.0263
G1 X176.134 Y117.197 E.04287
G1 X175.561 Y118.439 E.04289
G1 X174.746 Y119.538 E.0429
G1 X173.726 Y120.449 E.04288
G1 X172.951 Y120.931 E.02862
G1 X171.977 Y121.354 E.03329
G1 X171.077 Y121.594 E.0292
G1 X169.883 Y121.716 E.03763
G1 X115.145 Y121.769 E1.71627
G1 X90.757 Y120.154 E.76634
G1 X89.538 Y119.681 E.041
G1 X88.899 Y118.849 E.03289
G1 X83.678 Y106.85 E.41029
G1 X83.462 Y105.992 E.02774
G1 X83.348 Y104.862 E.03561
G1 X83.326 Y101.171 E.11573
G1 X83.34 Y88.67 E.39196
G1 X83.475 Y87.294 E.04335
G1 X83.966 Y85.748 E.05086
G1 X88.875 Y74.55 E.38336
M204 S1000
;WIPE_START
G1 F8640
G1 X88.899 Y74.495 E-.01386
G1 X89.751 Y73.512 E-.30037
G1 X91.54 Y72.405 E-.48577
;WIPE_END
G1 Z.6 F720
; printing object Camera_Stand_Base_clean.stl id:0 copy 0
G1 X126.265 Y60.045 F10800
G1 Z.2 F720
G1 E.8 F2100
M204 S800
;TYPE:Perimeter
;WIDTH:0.419999
G1 F1200
G1 X126.407 Y60.141 E.00537
G1 X126.783 Y60.581 E.01815
G1 X127.01 Y61.101 E.01779
G1 X127.093 Y61.599 E.01583
G1 X127.037 Y62.153 E.01746
G1 X126.852 Y62.627 E.01595
G1 X126.523 Y63.073 E.01738
G1 X126.38 Y63.208 E.00617
G1 X125.953 Y63.489 E.01603
G1 X125.773 Y63.566 E.00614
G1 X125.275 Y63.685 E.01605
G1 X124.77 Y63.679 E.01584
G1 X124.251 Y63.536 E.01688
G1 X123.784 Y63.249 E.01719
G1 X123.418 Y62.863 E.01668
G1 X123.207 Y62.46 E.01426
G1 X123.065 Y62.07 E.01301
G1 X123.025 Y61.599 E.01482
G1 X123.095 Y61.132 E.01481
G1 X123.289 Y60.667 E.0158
G1 X123.595 Y60.257 E.01604
G1 X123.738 Y60.122 E.00617
G1 X124.166 Y59.841 E.01605
G1 X124.541 Y59.717 E.01238
G1 X125.007 Y59.631 E.01486
G1 X125.507 Y59.684 E.01576
G1 X125.988 Y59.859 E.01605
G1 X126.215 Y60.011 E.00857
M204 S1000
G1 X126.041 Y60.346 F10800
M204 S800
;TYPE:External perimeter
G1 F1200
G1 X126.213 Y60.473 E.0067
G1 X126.461 Y60.781 E.0124
G1 X126.666 Y61.254 E.01616
G1 X126.718 Y61.687 E.01367
G1 X126.668 Y62.069 E.01208
G1 X126.526 Y62.437 E.01237
G1 X126.221 Y62.848 E.01605
G1 X125.746 Y63.174 E.01806
G1 X125.188 Y63.318 E.01807
G1 X124.749 Y63.295 E.01378
G1 X124.382 Y63.18 E.01206
G1 X124.048 Y62.98 E.01221
G1 X123.692 Y62.604 E.01624
G1 X123.454 Y62.079 E.01807
G1 X123.4 Y61.643 E.01377
G1 X123.449 Y61.261 E.01208
G1 X123.6 Y60.882 E.01279
G1 X123.917 Y60.459 E.01657
G1 X124.335 Y60.181 E.01574
G1 X124.931 Y60.012 E.01942
G1 X125.378 Y60.038 E.01404
G1 X125.859 Y60.213 E.01605
G1 X125.992 Y60.311 E.00518
M204 S1000
;WIPE_START
G1 F8640
G1 X126.041 Y60.346 E-.0139
G1 X126.213 Y60.473 E-.04937
G1 X126.461 Y60.781 E-.09131
G1 X126.666 Y61.254 E-.11903
G1 X126.718 Y61.687 E-.1007
G1 X126.668 Y62.069 E-.08896
G1 X126.526 Y62.437 E-.09108
G1 X126.221 Y62.848 E-.11818
G1 X125.766 Y63.16 E-.12747
;WIPE_END
G1 Z.6 F720
G1 X136.792 Y82.574 F10800
G1 Z.2 F720
G1 E.8 F2100
M204 S800
;TYPE:Perimeter
G1 F1200
G1 X136.787 Y82.583 E.00032
G1 X130.466 Y82.583 E.19819
G1 X130.387 Y82.492 E.00378
G1 X130.296 Y82.484 E.00286
G1 X119.817 Y82.484 E.32856
G1 X119.688 Y82.583 E.0051
G1 X113.356 Y82.583 E.19854
G1 X113.12 Y82.161 E.01516
G1 X112.719 Y81.317 E.0293
G1 X112.39 Y80.479 E.02823
G1 X112.11 Y79.597 E.02901
G1 X111.894 Y78.708 E.02868
G1 X111.683 Y77.335 E.04355
G1 X111.621 Y76.422 E.02869
G1 X111.618 Y70.635 E.18145
G1 X111.673 Y69.712 E.02899
G1 X111.877 Y68.326 E.04393
G1 X112.089 Y67.428 E.02893
G1 X112.363 Y66.547 E.02893
G1 X112.892 Y65.25 E.04392
G1 X113.312 Y64.429 E.02891
G1 X113.791 Y63.635 E.02907
G1 X114.323 Y62.875 E.02909
G1 X114.906 Y62.154 E.02907
G1 X115.538 Y61.475 E.02908
G1 X116.211 Y60.844 E.02893
G1 X117.312 Y59.977 E.04394
G1 X118.083 Y59.471 E.02892
G1 X118.892 Y59.017 E.02909
G1 X119.73 Y58.62 E.02907
G1 X120.593 Y58.281 E.02907
G1 X121.478 Y58.003 E.02909
G1 X122.38 Y57.786 E.02909
G1 X123.294 Y57.632 E.02906
G1 X124.217 Y57.541 E.02908
G1 X125.157 Y57.514 E.02949
G1 X126.071 Y57.55 E.02868
G1 X126.993 Y57.651 E.02908
G1 X127.906 Y57.815 E.02908
G1 X128.806 Y58.041 E.02909
G1 X129.688 Y58.328 E.02908
G1 X130.547 Y58.676 E.02906
G1 X131.381 Y59.082 E.02908
G1 X132.185 Y59.545 E.02909
G1 X132.955 Y60.061 E.02906
G1 X133.688 Y60.63 E.02909
G1 X134.38 Y61.248 E.02909
G1 X135.028 Y61.912 E.02909
G1 X135.628 Y62.619 E.02907
G1 X136.179 Y63.365 E.02908
G1 X136.676 Y64.148 E.02908
G1 X137.119 Y64.963 E.02908
G1 X137.504 Y65.807 E.02909
G1 X137.83 Y66.675 E.02907
G1 X138.095 Y67.559 E.02894
G1 X138.378 Y68.926 E.04377
G1 X138.477 Y69.898 E.03063
G1 X138.52 Y70.719 E.02578
G1 X138.536 Y75.921 E.16311
G1 X138.507 Y76.85 E.02914
G1 X138.345 Y78.228 E.0435
G1 X138.042 Y79.584 E.04356
G1 X137.606 Y80.889 E.04314
G1 X137.238 Y81.74 E.02907
G1 X136.82 Y82.521 E.02777
M204 S1000
G1 X137.014 Y82.957 F10800
M204 S800
;TYPE:External perimeter
G1 F1200
G1 X137.013 Y82.96 E.0001
G1 X130.41 Y82.96 E.20703
G1 X130.296 Y82.861 E.00473
G1 X119.858 Y82.861 E.32728
G1 X119.745 Y82.96 E.00471
G1 X113.134 Y82.96 E.20728
G1 X112.784 Y82.334 E.02249
G1 X112.373 Y81.467 E.03008
G1 X112.034 Y80.605 E.02904
G1 X111.747 Y79.699 E.0298
G1 X111.524 Y78.781 E.02962
G1 X111.308 Y77.377 E.04454
G1 X111.244 Y76.435 E.0296
G1 X111.241 Y70.623 E.18223
G1 X111.298 Y69.673 E.02984
G1 X111.506 Y68.255 E.04494
G1 X111.725 Y67.329 E.02983
G1 X112.008 Y66.42 E.02985
G1 X112.549 Y65.093 E.04493
G1 X112.983 Y64.246 E.02984
G1 X113.475 Y63.429 E.0299
G1 X114.022 Y62.648 E.0299
G1 X114.621 Y61.907 E.02988
G1 X115.271 Y61.208 E.02993
G1 X115.965 Y60.557 E.02983
G1 X117.091 Y59.671 E.04492
G1 X117.887 Y59.149 E.02985
G1 X118.719 Y58.682 E.02992
G1 X119.58 Y58.274 E.02987
G1 X120.468 Y57.925 E.02992
G1 X121.377 Y57.639 E.02988
G1 X122.304 Y57.416 E.02989
G1 X123.245 Y57.258 E.02992
G1 X124.193 Y57.164 E.02987
G1 X125.159 Y57.137 E.0303
G1 X126.099 Y57.174 E.0295
G1 X127.047 Y57.277 E.0299
G1 X127.986 Y57.446 E.02991
G1 X128.91 Y57.678 E.02987
G1 X129.817 Y57.974 E.02991
G1 X130.701 Y58.331 E.02989
G1 X131.558 Y58.749 E.0299
G1 X132.385 Y59.224 E.0299
G1 X133.176 Y59.756 E.02989
G1 X133.93 Y60.34 E.0299
G1 X134.641 Y60.975 E.02989
G1 X135.307 Y61.658 E.02991
G1 X135.924 Y62.384 E.02987
G1 X136.49 Y63.152 E.02991
G1 X137.001 Y63.956 E.02987
G1 X137.456 Y64.794 E.0299
G1 X137.853 Y65.662 E.02993
G1 X138.188 Y66.554 E.02988
G1 X138.461 Y67.466 E.02985
G1 X138.752 Y68.868 E.0449
G1 X138.852 Y69.86 E.03126
G1 X138.897 Y70.718 E.02694
G1 X138.913 Y75.927 E.16333
G1 X138.883 Y76.878 E.02983
G1 X138.717 Y78.291 E.04461
G1 X138.406 Y79.685 E.04478
G1 X137.958 Y81.024 E.04427
G1 X137.578 Y81.904 E.03005
G1 X137.043 Y82.904 E.03556
M204 S1000
;WIPE_START
G1 F8640
G1 X137.014 Y82.957 E-.01395
G1 X137.013 Y82.96 E-.00073
G1 X133.612 Y82.96 E-.78532
;WIPE_END
G1 Z.6 F720
G1 X135.85 Y63.173 F10800
G1 Z.2 F720
G1 E.8 F2100
M204 S800
;TYPE:Solid infill
;WIDTH:0.423342
G1 F1200
G1 X134.137 Y61.46 E.07663
G1 X133.483 Y60.876 E.02774
G1 X132.768 Y60.321 E.02863
G1 X131.874 Y59.735 E.03381
G1 X136.314 Y64.175 E.19862
G1 X136.832 Y65.106 E.0337
G1 X136.937 Y65.336 E.008
G1 X130.715 Y59.114 E.27834
G1 X130.417 Y58.969 E.01048
G1 X129.77 Y58.708 E.02207
G1 X137.338 Y66.275 E.33853
G1 X137.527 Y66.777 E.01697
G1 X137.623 Y67.098 E.0106
G1 X128.949 Y58.425 E.38801
G1 X128.207 Y58.221 E.02434
G1 X137.826 Y67.839 E.43028
G1 X137.966 Y68.518 E.02193
G1 X127.519 Y58.071 E.46734
G1 X126.87 Y57.96 E.02083
G1 X138.081 Y69.17 E.5015
G1 X138.142 Y69.769 E.01905
G1 X126.267 Y57.894 E.53122
G1 X125.69 Y57.856 E.01829
G1 X138.198 Y70.364 E.55954
G1 X138.2 Y70.903 E.01705
G1 X125.134 Y57.837 E.5845
G1 X124.61 Y57.851 E.01658
G1 X138.202 Y71.443 E.60803
G1 X138.203 Y71.983 E.01708
G1 X127.348 Y61.128 E.4856
G1 X127.314 Y60.996 E.00431
G1 X127.098 Y60.496 E.01723
G1 X126.973 Y60.293 E.00754
G1 X126.731 Y60.005 E.0119
G1 X126.604 Y59.888 E.00546
G1 X126.289 Y59.654 E.01241
G1 X126.105 Y59.56 E.00654
G1 X125.598 Y59.377 E.01705
G1 X124.095 Y57.875 E.06721
G1 X123.606 Y57.923 E.01554
G1 X124.994 Y59.312 E.06211
G1 X124.8 Y59.327 E.00615
M73 Q1 S70
G1 X124.534 Y59.389 E.00864
G1 X123.129 Y57.985 E.06283
G1 X122.669 Y58.062 E.01475
M73 P1 R70
G1 X124.119 Y59.512 E.06487
G1 X123.998 Y59.567 E.0042
G1 X123.779 Y59.711 E.00829
G1 X122.222 Y58.153 E.06967
G1 X121.788 Y58.258 E.01412
G1 X123.469 Y59.939 E.0752
G1 X123.345 Y60.056 E.00539
G1 X123.218 Y60.226 E.00671
G1 X121.367 Y58.374 E.08283
G1 X120.957 Y58.503 E.0136
G1 X122.996 Y60.541 E.09119
G1 X122.913 Y60.694 E.00551
G1 X122.837 Y60.921 E.00757
G1 X120.557 Y58.64 E.10202
G1 X120.17 Y58.792 E.01315
G1 X122.732 Y61.353 E.11459
G1 X122.706 Y61.57 E.00691
G1 X122.721 Y61.881 E.00985
G1 X119.66 Y58.82 E.13693
M204 S1000
;WIPE_START
G1 F8640
G1 X122.11 Y61.27 E-.8
;WIPE_END
G1 Z.6 F720
G1 X127.24 Y61.557 F10800
G1 Z.2 F720
G1 E.8 F2100
M204 S800
G1 F1200
G1 X138.205 Y72.522 E.49052
G1 X138.207 Y73.062 E.01708
M73 P1 R69
G1 X127.351 Y62.207 E.48562
G1 X127.214 Y62.608 E.0134
G1 X138.208 Y73.602 E.49181
G1 X138.21 Y74.141 E.01705
G1 X127.015 Y62.947 E.50078
G1 X126.784 Y63.254 E.01215
G1 X138.212 Y74.681 E.51121
G1 X138.213 Y75.221 E.01708
G1 X126.502 Y63.51 E.52389
G1 X126.175 Y63.721 E.01231
G1 X138.215 Y75.76 E.53858
G1 X138.204 Y76.287 E.01667
G1 X125.805 Y63.888 E.55467
G1 X125.365 Y63.986 E.01426
G1 X138.188 Y76.809 E.57363
G1 X138.132 Y77.292 E.01538
G1 X124.653 Y63.812 E.603
M204 S1000
;WIPE_START
G1 F8640
G1 X127.103 Y66.262 E-.8
;WIPE_END
G1 Z.6 F720
G1 X119.295 Y58.993 F10800
G1 Z.2 F720
G1 E.8 F2100
M204 S800
G1 F1200
G1 X138.076 Y77.773 E.84014
G1 X138.012 Y78.248 E.01516
G1 X119.058 Y59.293 E.84792
G1 X118.712 Y59.486 E.01253
G1 X137.914 Y78.687 E.85897
G1 X137.816 Y79.127 E.01426
G1 X118.368 Y59.679 E.87
G1 X118.036 Y59.886 E.01238
G1 X137.712 Y79.561 E.88018
G1 X137.577 Y79.964 E.01344
G1 X117.711 Y60.099 E.88868
G1 X117.395 Y60.32 E.0122
G1 X137.442 Y80.368 E.89682
G1 X137.307 Y80.771 E.01344
G1 X117.094 Y60.557 E.90425
G1 X116.793 Y60.794 E.01212
G1 X137.145 Y81.147 E.91046
G1 X136.983 Y81.522 E.01292
G1 X116.492 Y61.031 E.91666
G1 X116.208 Y61.286 E.01207
G1 X136.801 Y81.878 E.9212
G1 X136.613 Y82.229 E.0126
G1 X115.931 Y61.546 E.92523
G1 X115.66 Y61.814 E.01206
G1 X136.109 Y82.263 E.91478
G1 X135.571 Y82.263 E.01702
M73 Q1 S69
G1 X115.401 Y62.092 E.90232
G1 X115.142 Y62.372 E.01207
G1 X135.033 Y82.263 E.88982
G1 X134.495 Y82.263 E.01702
G1 X114.902 Y62.669 E.87651
G1 X114.661 Y62.967 E.01212
G1 X133.957 Y82.263 E.8632
G1 X133.419 Y82.263 E.01702
G1 X114.433 Y63.276 E.84936
G1 X114.211 Y63.593 E.01224
G1 X132.881 Y82.263 E.8352
G1 X132.343 Y82.263 E.01702
G1 X113.996 Y63.915 E.82077
G1 X113.794 Y64.251 E.0124
G1 X131.805 Y82.263 E.80574
G1 X131.267 Y82.263 E.01702
G1 X113.592 Y64.587 E.79071
G1 X113.409 Y64.943 E.01266
G1 X130.729 Y82.263 E.77481
G1 X130.555 Y82.263 E.0055
M73 P2 R69
M73 Q2 S69
G1 X130.483 Y82.178 E.00352
G1 X130.092 Y82.164 E.01238
G1 X113.227 Y65.298 E.75447
G1 X113.065 Y65.674 E.01295
G1 X129.554 Y82.164 E.73765
G1 X129.016 Y82.164 E.01702
G1 X112.909 Y66.056 E.72056
G1 X112.753 Y66.439 E.01308
G1 X128.478 Y82.164 E.70345
G1 X127.94 Y82.164 E.01702
G1 X112.61 Y66.833 E.68581
G1 X112.482 Y67.243 E.01359
G1 X127.402 Y82.164 E.66746
G1 X126.864 Y82.164 E.01702
G1 X112.363 Y67.663 E.6487
G1 X112.26 Y68.098 E.01414
G1 X126.326 Y82.164 E.62924
G1 X125.788 Y82.164 E.01702
G1 X112.169 Y68.544 E.60926
G1 X112.1 Y69.013 E.015
G1 X125.25 Y82.164 E.58828
G1 X124.712 Y82.164 E.01702
G1 X112.031 Y69.482 E.5673
G1 X111.979 Y69.968 E.01546
G1 X124.174 Y82.164 E.54556
G1 X123.636 Y82.164 E.01702
G1 X111.949 Y70.476 E.52284
G1 X111.939 Y71.004 E.0167
G1 X123.098 Y82.164 E.49922
G1 X122.56 Y82.164 E.01702
G1 X111.939 Y71.542 E.47515
G1 X111.939 Y72.081 E.01705
G1 X122.022 Y82.164 E.45106
G1 X121.484 Y82.164 E.01702
G1 X111.94 Y72.619 E.42697
G1 X111.94 Y73.157 E.01702
G1 X120.946 Y82.164 E.4029
G1 X120.408 Y82.164 E.01702
G1 X111.94 Y73.695 E.37884
G1 X111.941 Y74.234 E.01705
G1 X119.87 Y82.164 E.35472
G1 X119.672 Y82.178 E.00628
M73 P2 R68
G1 X119.6 Y82.263 E.00352
G1 X119.431 Y82.263 E.00535
G1 X111.941 Y74.772 E.33509
G1 X111.941 Y75.31 E.01702
G1 X118.893 Y82.263 E.31102
G1 X118.355 Y82.263 E.01702
G1 X111.941 Y75.849 E.28693
G1 X111.942 Y76.387 E.01702
G1 X117.817 Y82.263 E.26284
G1 X117.279 Y82.263 E.01702
G1 X111.979 Y76.962 E.23712
G1 X112.002 Y77.3 E.01072
G1 X112.042 Y77.564 E.00845
G1 X116.741 Y82.263 E.21021
G1 X116.204 Y82.263 E.01699
G1 X112.14 Y78.2 E.18178
G1 X112.209 Y78.646 E.01428
G1 X112.261 Y78.858 E.0069
G1 X115.666 Y82.263 E.15232
G1 X115.128 Y82.263 E.01702
G1 X112.44 Y79.575 E.12025
G1 X112.689 Y80.362 E.02611
G1 X114.59 Y82.263 E.08504
G1 X114.052 Y82.263 E.01702
G1 X112.736 Y80.947 E.05887
M204 S1000
;WIPE_START
G1 F8640
G1 X114.052 Y82.263 E-.42973
G1 X114.59 Y82.263 E-.12423
